24x24/apps/trelby.svg

<svg xmlns="http://www.w3.org/2000/svg" width="24" height="24" version="1">
 <path style="opacity:0.2" d="m 14.939453,2.5000309 c -0.498169,0.00549 -0.641358,0.049955 -0.953125,0.1611328 C 10.601847,4.0450831 7.3471826,5.413707 3.2675784,6.5674139 2.2911202,6.7947154 1.8796339,7.3175519 2.0302738,8.1377264 c 0,0 0.7421875,7.0164726 0.7421875,7.4335936 0,0.417067 0.3717802,2.380272 0.3222655,3.091796 -0.04952,0.71147 -0.6190901,2.895051 -0.6933593,3.189453 -0.074263,0.294459 -7.24e-5,0.490478 0.074219,0.637696 0.04751,0.09415 1.0933164,-0.5096 2.111328,-1.160157 1.1546634,-0.817972 2.3425363,-1.589451 3.5468748,-2.336914 3.2454489,-1.810661 6.5278279,-3.567421 9.6650389,-5.507812 0.383294,-0.231989 1.443677,-0.887477 2.15625,-1.324218 0.221793,-0.13158 0.446213,-0.259556 0.666992,-0.392579 2.74e-4,-0.0055 -2.51e-4,-0.01107 0,-0.0166 C 21.155531,11.423714 21.285389,11.349375 22,10.906282 21.97155,9.6479218 21.547723,8.3761953 21.081054,7.3594074 c -0.201885,-0.4381985 -0.301632,-0.4251 -0.754882,-0.1220705 -0.2463,0.1802655 -0.527671,0.4764175 -0.797852,0.6914065 -0.0093,0.00797 -0.07409,0.066897 -0.08594,0.077147 C 18.731881,6.7234894 17.743384,5.2272075 16.550781,3.2900699 16.139369,2.7070341 15.437622,2.4950286 14.939453,2.5000309 Z"/>
 <path style="fill:#932c93" d="m 2.0302452,7.6377104 c 0,0 0.742687,7.0167626 0.742687,7.4338836 0,0.417067 0.37134,2.37979 0.3218253,3.091315 -0.04952,0.711469 -0.6189025,2.89501 -0.6931716,3.189412 -0.074264,0.294459 -2.21e-5,0.49072 0.074269,0.637938 0.047509,0.09415 1.0935001,-0.509193 2.1115117,-1.15975 C 9.6505815,17.243689 15.29323,14.479468 20.622099,11.268755 20.731493,9.0543838 19.074967,6.8898594 16.550664,2.78965 16.139252,2.2066142 15.437296,1.9950848 14.939127,2.0000871 14.440959,2.0055787 14.298405,2.0500971 13.986638,2.1612749 10.602157,3.5451944 7.3476551,4.9137807 3.268051,6.0674874 2.2915928,6.2947889 1.8796053,6.8175359 2.0302452,7.6377104 Z"/>
 <path style="opacity:0.1;fill:#f4f4f7" d="m 14.939453,2.0000006 c -0.498169,0.00549 -0.641358,0.049955 -0.953125,0.1611328 C 10.601847,3.5450528 7.3471826,4.9136765 3.2675784,6.0673834 2.3174907,6.2885459 1.9064357,6.7918239 2.0234378,7.5742194 2.1229635,7.0727789 2.5372024,6.7374014 3.2675784,6.5673834 7.3471826,5.413677 10.601847,4.0450528 13.986328,2.6611334 c 0.311767,-0.1111778 0.454956,-0.1556413 0.953125,-0.1611328 0.498169,-0.005 1.199916,0.2070032 1.611328,0.790039 2.336233,3.7947268 3.925803,5.9306802 4.063477,7.9833984 0.0026,-0.0016 0.0052,-0.0033 0.0078,-0.0049 C 20.731464,9.0541833 19.075085,6.8902489 16.550781,2.7900396 16.139369,2.2070038 15.437622,1.9949983 14.939453,2.0000006 Z M 3.0859378,18.219726 c -0.067328,0.751044 -0.6116902,2.843917 -0.6845703,3.132813 -0.049381,0.195798 -0.030483,0.345336 0.00781,0.46875 0.083988,-0.331426 0.6365645,-2.454466 0.6855468,-3.158203 0.00807,-0.116008 0.00208,-0.272954 -0.00879,-0.44336 z"/>
 <path style="opacity:0.4" d="M 19.422979,7.4718339 C 12.229584,11.285257 7.4014591,13.382844 2.8041857,15.380962 c 0.029052,0.262472 0.07566,0.60532 0.1334101,1.020765 C 7.3811931,14.572421 14.194676,11.378474 19.89094,8.3754113 19.826652,8.2412118 19.75981,8.1062289 19.687746,7.9673114 L 19.501999,7.6095809 c -0.02426,-0.044345 -0.05406,-0.092862 -0.07902,-0.137747 z m 0.780962,1.6005344 C 13.004705,12.889037 7.6659256,15.380697 3.0586911,17.385485 c 0.031031,0.310884 0.048993,0.589248 0.035918,0.777138 -0.00536,0.07698 -0.035067,0.220731 -0.051311,0.327919 C 7.4907456,16.659711 14.459225,13.37742 20.159813,10.371711 l 0.04721,-1.2931747 c -8.5e-4,-0.0021 -0.0023,-0.00405 -0.0031,-0.00617 z"/>
 <path style="fill:#b72dc5" d="m 7.6525176,18.760618 c 0,0 6.5888974,-6.300566 7.7442424,-7.497632 1.155346,-1.197013 3.746124,-3.5043691 4.131238,-3.8339446 0.270181,-0.214989 0.552166,-0.511761 0.798466,-0.6920265 0.45325,-0.3030295 0.552998,-0.315882 0.754884,0.1223165 0.466668,1.016788 0.890204,2.2882419 0.918652,3.5466026 -2.178924,1.351037 -3.454291,2.127226 -4.201012,2.579181 -3.292218,2.036264 -6.745035,3.869059 -10.1464704,5.775503 z"/>
 <path style="opacity:0.2;fill:#f4f4f7" d="m 20.797851,6.5205084 c -0.106829,-0.013685 -0.245054,0.065282 -0.471679,0.2167965 -0.2463,0.1802655 -0.527671,0.4764175 -0.797852,0.6914065 -0.385114,0.3295755 -2.97649,2.6369716 -4.131836,3.8339846 -1.155345,1.197066 -7.7441399,7.498046 -7.7441399,7.498046 0.411169,-0.230453 0.824031,-0.457733 1.236328,-0.686523 1.6243419,-1.555706 5.5601469,-5.329637 6.5078119,-6.311523 1.155346,-1.197013 3.746722,-3.5044092 4.131836,-3.8339846 0.270181,-0.214989 0.551552,-0.511141 0.797852,-0.6914065 0.45325,-0.3030295 0.552997,-0.316128 0.754882,0.1220705 0.407247,0.8873174 0.781999,1.9681784 0.889649,3.0654296 0.01524,-0.0094 0.01397,-0.009 0.0293,-0.01855 C 21.971548,9.1478893 21.547721,7.8761629 21.081052,6.8593749 20.98011,6.6402759 20.904678,6.5341909 20.797849,6.5205079 Z"/>
</svg>

<svg xmlns="http://www.w3.org/2000/svg" width="24" height="24" version="1"><path style="opacity:.2" d="M14.94 2.5c-.499.006-.642.05-.954.161-3.384 1.384-6.639 2.753-10.718 3.906-.977.228-1.388.75-1.238 1.57 0 0 .742 7.017.742 7.434 0 .417.372 2.38.323 3.092-.05.712-.62 2.895-.694 3.19-.074.294 0 .49.075.637.047.094 1.093-.51 2.11-1.16a69.775 69.775 0 0 1 3.548-2.337c3.245-1.81 6.528-3.567 9.665-5.508.383-.232 1.444-.887 2.156-1.324.222-.131.446-.26.667-.392v-.017c.534-.328.663-.403 1.378-.846-.028-1.258-.452-2.53-.919-3.547-.202-.438-.302-.425-.755-.122-.246.18-.527.477-.798.692l-.086.077c-.71-1.283-1.699-2.779-2.891-4.716-.412-.583-1.113-.795-1.612-.79z"/><path style="fill:#932c93" d="M2.03 7.638s.743 7.016.743 7.434c0 .417.371 2.38.322 3.09-.05.712-.62 2.896-.693 3.19-.075.295 0 .491.074.638.047.094 1.093-.509 2.111-1.16 5.064-3.586 10.706-6.35 16.035-9.561.11-2.215-1.547-4.38-4.071-8.48-.412-.582-1.114-.794-1.612-.789-.498.006-.64.05-.952.161-3.385 1.384-6.64 2.753-10.719 3.906-.976.228-1.388.75-1.238 1.57z"/><path style="opacity:.1;fill:#f4f4f7" d="M14.94 2c-.499.005-.642.05-.954.161-3.384 1.384-6.639 2.753-10.718 3.906-.95.222-1.362.725-1.245 1.507.1-.501.514-.837 1.245-1.007 4.08-1.153 7.334-2.522 10.718-3.906.312-.111.455-.156.953-.161.499-.005 1.2.207 1.612.79 2.336 3.795 3.926 5.93 4.063 7.983l.008-.004c.11-2.215-1.547-4.379-4.071-8.479-.412-.583-1.113-.795-1.612-.79zM3.085 18.22c-.067.75-.612 2.844-.685 3.133a.83.83 0 0 0 .008.468c.084-.331.637-2.454.686-3.158a3.642 3.642 0 0 0-.01-.443z"/><path style="opacity:.4" d="M19.423 7.472c-7.193 3.813-12.022 5.91-16.619 7.909.03.262.076.605.134 1.02 4.443-1.829 11.257-5.023 16.953-8.026a14.26 14.26 0 0 0-.203-.408l-.186-.357c-.024-.045-.054-.093-.079-.138zm.78 1.6C13.006 12.89 7.667 15.381 3.06 17.385c.03.311.049.59.036.778-.006.077-.035.22-.052.328 4.448-1.831 11.416-5.114 17.117-8.12l.047-1.292c0-.003-.002-.005-.003-.007z"/><path style="fill:#b72dc5" d="M7.653 18.76s6.588-6.3 7.744-7.497c1.155-1.197 3.746-3.504 4.131-3.834.27-.215.552-.512.798-.692.454-.303.553-.316.755.122.467 1.017.89 2.289.919 3.547a448.48 448.48 0 0 1-4.201 2.58c-3.292 2.035-6.745 3.868-10.146 5.775z"/><path style="opacity:.2;fill:#f4f4f7" d="M20.798 6.52c-.107-.013-.245.066-.472.217-.246.18-.527.477-.798.692-.385.33-2.976 2.637-4.132 3.834-1.155 1.197-7.744 7.498-7.744 7.498.412-.23.824-.458 1.237-.687 1.624-1.555 5.56-5.33 6.507-6.311 1.156-1.197 3.747-3.505 4.132-3.834.27-.215.552-.511.798-.692.453-.303.553-.316.755.122.407.888.782 1.969.89 3.066l.029-.019c-.028-1.258-.452-2.53-.919-3.547-.1-.219-.176-.325-.283-.338z"/></svg>
